assets/icons/24px/stroke/numbers-24px.svg

<svg width="24" height="24" viewBox="0 0 24 24" fill="none" xmlns="http://www.w3.org/2000/svg">
<path fill-rule="evenodd" clip-rule="evenodd" d="M14.7885 9.22896C14.7666 10.3438 14.224 11.524 13.155 12.6792L13.1458 12.6892L11.3758 14.4999H13.5C14.0523 14.4999 14.5 14.9477 14.5 15.4999C14.5 16.0522 14.0523 16.4999 13.5 16.4999H9.00002C8.59763 16.4999 8.23444 16.2588 8.07833 15.8879C7.92223 15.517 8.00363 15.0887 8.28489 14.801L11.6961 11.3111C12.5408 10.3949 12.7795 9.66557 12.7889 9.18972C12.7978 8.73227 12.6013 8.39986 12.3112 8.1878C11.7241 7.75862 10.5827 7.74581 9.86826 8.99609C9.59426 9.47561 8.98341 9.64221 8.50389 9.3682C8.02437 9.0942 7.85776 8.48334 8.13177 8.00382C9.41733 5.75404 11.9075 5.41532 13.4915 6.5732C14.2869 7.15467 14.8107 8.09403 14.7885 9.22896ZM5.03811 6.16526C5.39903 6.32585 5.63158 6.68386 5.63158 7.07889V14.4999H6.26316C6.81544 14.4999 7.26316 14.9477 7.26316 15.4999C7.26316 16.0522 6.81544 16.4999 6.26316 16.4999H3C2.44771 16.4999 2 16.0522 2 15.4999C2 14.9477 2.44771 14.4999 3 14.4999H3.63158V9.32629L3.16947 9.74275C2.75921 10.1125 2.1269 10.0796 1.75716 9.66937C1.38743 9.25911 1.42028 8.62679 1.83054 8.25706L3.96212 6.33605C4.25556 6.07159 4.67719 6.00466 5.03811 6.16526ZM19.1889 8.17446C18.5978 8.04595 17.7915 8.20582 17.1536 8.75673C16.7356 9.11771 16.1042 9.0715 15.7432 8.65351C15.3822 8.23553 15.4284 7.60405 15.8464 7.24307C16.9453 6.29399 18.3891 5.95386 19.6138 6.22011C20.2329 6.35471 20.8316 6.65362 21.2821 7.15081C21.7427 7.65901 22 8.32263 22 9.07895C22 9.93718 21.6629 10.6148 21.1472 11.1008C21.1205 11.126 21.0934 11.1505 21.0661 11.1745C21.1087 11.2148 21.1505 11.2569 21.1915 11.3006C21.7034 11.8477 22 12.5856 22 13.4999C22 15.2241 20.5792 16.1602 19.3206 16.3851C18.0604 16.6102 16.4346 16.242 15.6319 14.8385C15.3578 14.3591 15.5241 13.7482 16.0036 13.474C16.483 13.1998 17.0939 13.3662 17.3681 13.8456C17.618 14.2827 18.2422 14.546 18.9689 14.4162C19.6971 14.2861 20 13.8809 20 13.4999C20 13.0463 19.8657 12.8109 19.7312 12.6672C19.5763 12.5017 19.3348 12.3693 19.0112 12.2804C18.7623 12.212 18.5023 12.1796 18.2711 12.1673C18.2289 12.1704 18.188 12.1731 18.1488 12.1754C17.9631 12.1861 17.8072 12.1882 17.6952 12.1876C17.6391 12.1873 17.5936 12.1863 17.5605 12.1853L17.5203 12.1838L17.5075 12.1832L17.503 12.183L17.5012 12.1829C17.5008 12.1829 17.4997 12.1828 17.5526 11.1842C17.4317 10.1916 17.4321 10.1915 17.4325 10.1915L17.4354 10.1911L17.4403 10.1906L17.4541 10.189C17.465 10.1878 17.4791 10.1864 17.4964 10.1847C17.5309 10.1814 17.5779 10.1774 17.6357 10.1736C17.751 10.1661 17.9112 10.1594 18.1017 10.1614C18.1425 10.1618 18.185 10.1626 18.2291 10.164C18.4698 10.1416 18.7435 10.1 19.0077 10.0263C19.3556 9.92929 19.6152 9.7964 19.7754 9.64539C19.9061 9.5222 20 9.36465 20 9.07893C20 8.79573 19.9119 8.61721 19.8001 8.49381C19.6783 8.35939 19.4777 8.23724 19.1889 8.17446ZM17.5526 11.1842L17.4325 10.1915C16.9177 10.2542 16.5355 10.7001 16.5532 11.2184C16.5709 11.7367 16.9819 12.1554 17.4997 12.1828L17.5526 11.1842Z" fill="white"/>
</svg>

<svg width="24" height="24" fill="none" xmlns="http://www.w3.org/2000/svg"><path fill-rule="evenodd" clip-rule="evenodd" d="M14.789 9.229c-.022 1.115-.565 2.295-1.634 3.45l-.01.01-1.77 1.81H13.5a1 1 0 0 1 0 2H9a1 1 0 0 1-.715-1.698l3.411-3.49c.845-.916 1.084-1.645 1.093-2.121.009-.458-.188-.79-.478-1.002-.587-.43-1.728-.442-2.443.808a1 1 0 1 1-1.736-.992c1.285-2.25 3.776-2.589 5.36-1.43a3.159 3.159 0 0 1 1.296 2.655zm-9.75-3.064a1 1 0 0 1 .593.914v7.42h.631a1 1 0 0 1 0 2H3a1 1 0 1 1 0-2h.632V9.327l-.463.417a1 1 0 0 1-1.338-1.486l2.131-1.92a1 1 0 0 1 1.076-.172zm14.15 2.01c-.591-.13-1.398.03-2.035.582a1 1 0 1 1-1.308-1.514c1.1-.949 2.543-1.29 3.768-1.023.619.135 1.218.434 1.668.93.46.509.718 1.173.718 1.929 0 .858-.337 1.536-.853 2.022a3.1 3.1 0 0 1-.08.073c.042.04.084.083.125.127.511.547.808 1.285.808 2.199 0 1.724-1.42 2.66-2.68 2.885-1.26.225-2.885-.143-3.688-1.547a1 1 0 0 1 1.736-.992c.25.437.874.7 1.6.57.73-.13 1.032-.535 1.032-.916 0-.454-.134-.69-.269-.833-.155-.165-.396-.298-.72-.387a3.547 3.547 0 0 0-.74-.113 8.343 8.343 0 0 1-.576.02c-.056 0-.101 0-.134-.002l-.04-.001h-.014l-.004-.001h-.002l.052-.999-.12-.992h.002l.005-.001.014-.002a3.97 3.97 0 0 1 .182-.015 6.228 6.228 0 0 1 .593-.01c.24-.022.515-.064.779-.138.348-.097.607-.23.767-.38.131-.124.225-.281.225-.567 0-.283-.088-.462-.2-.585-.122-.135-.322-.257-.611-.32zm-1.636 3.01l-.12-.994a1 1 0 0 0 .067 1.992l.053-.999z" fill="#fff"/></svg>
